X:1
T:Title
%%score ( 1 2 ) { 3 | 4 }
L:1/8
Q:1/4=95
M:4/4
K:G
V:1 treble nm="Grand Piano, Soprano"
V:2 treble 
V:3 bass nm="Choir Pad, Chennai, Tamil Nadu, Main"
V:4 bass 
V:1
 [DB]>[CA] [Ec]>[DB] [CA]2 [B,G]2 | [EG]>[^DF] [EG]>[CE] [B,=D]4 | %2
w: By~Hubert~Platt~Main,~1872 * * * * *||
 [DG]>[DA] [DB]>[Gc] [Gd]2 [DB]2 | [DG]>[DG] [^CA]>[CB] [DA]4 | [DB]>[CA] [Ec]>[DB] [CA]2 [B,G]2 | %5
w: |||
 [EA]>[EG] [DF]>[CE] [B,D]4 | [CE]>[DF] [DG]>[DA] [DB]2 [Ec]2 | [DB]>[DA] [DG]>[CF] [B,G]4 | %8
w: |||
 [FA]>[Fd] [E^c]>[Ge] [Fd]2 [FA]2 | z4 d4 | [Ge]>[Gd] [GB]>[DG] [CE]2 [EG]2 | %11
w: |||
 [B,D]>[B,G] [CA]>[DB] [B,G]4- | [B,G]4 z4 |] %13
w: ||
V:2
 x8 | x8 | x8 | x8 | x8 | x8 | x8 | x8 | x8 | [Gd]>[G^c] [GB]>[Gc] F2 A2 | x8 | x8 | x8 |] %13
V:3
 G,>G, G,>G, F,2 G,2 | G,>G, G,>G, G,4 | G,>F, G,>A, B,2 G,2 | B,>B, A,>G, F,4 | %4
 G,>G, G,>G, F,2 G,2 | G,>G, G,>G, G,4 | G,>A, G,>F, G,2 G,2 | G,>C B,>A, G,4 | %8
 D>A, A,>A, A,2[K:treble] D2 | E>E E>E D2 C2 | B,>B, D>G, G,2 G,2 | G,>G, F,>F, G,4- | G,4 z4 |] %13
V:4
 z4 D,2 E,2 | C,>C, C,>C, G,,4 | B,,>D, z z/ G,/ G,2 z2 | G,>G, E,>E, D,4 | z4 D,2 E,2 | %5
 C,>C, C,>C, G,,4 | C,>C, B,,>D, z2 C,2 | D,>D, D,>D, z4 | D,>D, A,,>A,, D,2 D,2 | %9
 A,>A, A,>A, D,4 | G,>G, G,,>B,, C,2 C,2 | D,>D, D,>D, G,,4- | G,,4 z4 |] %13

